X:550
T: ICH WEISS EIN RUHEBETTE
N: F1071
O: Europa, Mitteleuropa, Deutschland
R: Trauer -, Bregraebnis -, Trost - Lied
M: 4/4
L: 1/8
K: G
B2 | B2G2c2B2 | A4G2z
G | G2G2G2AE | F4z2
FG | A2A2A2B2 | B2dcc2z
c | F2GAD2F2 | G6

